X: 070
T: Burntwood Assembly
B: 204 Favourite Country Dances
N: Published by Straight & Skillern, London ca.1775
F: http://imslp.org/wiki/204_Favourite_Country_Dances_(Various) p.35 #70
Z: 2014 John Chambers <jc:trillian.mit.edu>
M: C|
L: 1/8
K: C
% - - - - - - - - - - - - - - - - - - - - - - - - -
|:\
cded BcdB | AcBA GEE2 |\
cded BcdB | AcBA GCC2 :|
|:\
AFcA GEcA | AFcA GDD2 |\
AFcA GEcE | Fagf ecc2 :|
% - - - - - - - - - - - - - - - - - - - - - - - - -
%%begintext align
%% Hands across .| back again :| cross over
%% 1 Cu. :|. Right & Left :|:
%%endtext

%%sep 1 1 500
%%sep 1 1 500
